public/images/img-star.svg

<svg fill="none" height="49" viewBox="0 0 49 49" width="49" xmlns="http://www.w3.org/2000/svg"><path d="m21.5819 1.663c1.1038-2.217538 4.2675-2.217536 5.3714 0l6.1715 12.3985c.2909.5844.7645 1.0579 1.3489 1.3488l12.3985 6.1716c2.2175 1.1038 2.2175 4.2675 0 5.3714l-12.3985 6.1715c-.5844.2909-1.058.7645-1.3489 1.3489l-6.1715 12.3985c-1.1039 2.2175-4.2676 2.2175-5.3714 0l-6.1716-12.3985c-.2909-.5844-.7644-1.058-1.3488-1.3489l-12.3985-6.1715c-2.217538-1.1039-2.217536-4.2676 0-5.3714l12.3985-6.1716c.5844-.2909 1.0579-.7644 1.3488-1.3488z" fill="#ffeb9c"/></svg>

<svg width="49" height="49" viewBox="0 0 49 49" fill="none" xmlns="http://www.w3.org/2000/svg">
<path d="M21.5819 1.663C22.6857 -0.554538 25.8494 -0.554536 26.9533 1.663L33.1248 14.0615C33.4157 14.6459 33.8893 15.1194 34.4737 15.4103L46.8722 21.5819C49.0897 22.6857 49.0897 25.8494 46.8722 26.9533L34.4737 33.1248C33.8893 33.4157 33.4157 33.8893 33.1248 34.4737L26.9533 46.8722C25.8494 49.0897 22.6857 49.0897 21.5819 46.8722L15.4103 34.4737C15.1194 33.8893 14.6459 33.4157 14.0615 33.1248L1.663 26.9533C-0.554538 25.8494 -0.554536 22.6857 1.663 21.5819L14.0615 15.4103C14.6459 15.1194 15.1194 14.6459 15.4103 14.0615L21.5819 1.663Z" fill="#FFEB9C"/>
</svg>
